ion/options-sharp.svg

<svg viewBox="0 0 512 512" xmlns="http://www.w3.org/2000/svg"><g><path d="M381.25 112v0c-8.85-25-36.28-38.09-61.27-29.24 -13.66 4.83-24.41 15.57-29.24 29.23H47.99v32h242.75v0c8.84 24.99 36.27 38.08 61.26 29.23 13.65-4.84 24.4-15.58 29.23-29.24h82.75v-32Z"/><path d="M176 208v0c-20.34.02-38.45 12.84-45.25 32H48v32h82.75v0c8.84 24.99 36.27 38.08 61.26 29.23 13.65-4.84 24.4-15.58 29.23-29.24h242.75v-32H221.24v-.001c-6.81-19.16-24.92-31.98-45.25-32Z"/><path d="M336 336h0c-20.34.02-38.45 12.84-45.25 32H48v32h242.75v-.001c8.84 24.99 36.27 38.08 61.26 29.23 13.65-4.84 24.4-15.58 29.23-29.24h82.75v-32h-82.75v-.001c-6.81-19.16-24.92-31.98-45.25-32Z"/></g></svg>

<svg xmlns="http://www.w3.org/2000/svg" width="512" height="512" viewBox="0 0 512 512"><path d="M381.25,112a48,48,0,0,0-90.5,0H48v32H290.75a48,48,0,0,0,90.5,0H464V112Z"/><path d="M176,208a48.09,48.09,0,0,0-45.25,32H48v32h82.75a48,48,0,0,0,90.5,0H464V240H221.25A48.09,48.09,0,0,0,176,208Z"/><path d="M336,336a48.09,48.09,0,0,0-45.25,32H48v32H290.75a48,48,0,0,0,90.5,0H464V368H381.25A48.09,48.09,0,0,0,336,336Z"/></svg>
